app/assets/images/tooltip-icon.svg

<svg height="11" viewBox="0 0 11 11" width="11" xmlns="http://www.w3.org/2000/svg"><path d="m5.5 0c-3.03756612 0-5.5 2.46243388-5.5 5.5s2.46243388 5.5 5.5 5.5 5.5-2.46243388 5.5-5.5c0-1.45869069-.5794626-2.85763722-1.6109127-3.8890873-1.03145008-1.03145008-2.43039661-1.6109127-3.8890873-1.6109127zm-.07489362 9.11829787c-.34770437 0-.62957447-.28187009-.62957447-.62957447 0-.34770437.2818701-.62957446.62957447-.62957446.34770438 0 .62957447.28187009.62957447.62957446-.000644.34743728-.28213719.62893047-.62957447.62957447zm.68808511-3.05659574s-.06202128.02223404-.06202128.05851064v.49968085c0 .34608865-.28056028.62664893-.62664893.62664893s-.62664894-.28056028-.62664894-.62664893v-.49968085c.00563806-.56850639.37341377-1.07001873.91393617-1.2462766.37329041-.12457559.62032947-.47966448.60734043-.87297872-.02521481-.48054741-.41873224-.85922479-.89989362-.86595745-.34067735.00149179-.65039853.1979669-.79691489.50553191-.15026259.31183524-.52486688.44281576-.83670212.29255318s-.44281577-.52486687-.2925532-.83670211c.35254838-.73894904 1.09690634-1.21093655 1.91563829-1.21468085h.01287234c1.15806471.00671323 2.10528995.92453115 2.14851064 2.08180851.03188395.94401892-.56015109 1.79685395-1.45574468 2.09702127z" fill="#fff" opacity=".8"/></svg>

<?xml version="1.0" encoding="UTF-8"?>
<svg width="11px" height="11px" viewBox="0 0 11 11" version="1.1" xmlns="http://www.w3.org/2000/svg" xmlns:xlink="http://www.w3.org/1999/xlink">
    <!-- Generator: Sketch 53.2 (72643) - https://sketchapp.com -->
    <title>noun_Question_670398</title>
    <desc>Created with Sketch.</desc>
    <g id="Symbols" stroke="none" stroke-width="1" fill="none" fill-rule="evenodd" opacity="0.800000012">
        <g id="Parameter-Dark" transform="translate(-200.000000, -1.000000)" fill="#FFFFFF" fill-rule="nonzero">
            <g id="noun_Question_670398" transform="translate(200.000000, 1.000000)">
                <path d="M5.5,1.03935773e-16 C2.46243388,-1.55903659e-16 3.63775204e-16,2.46243388 0,5.5 C-3.63775204e-16,8.53756612 2.46243388,11 5.5,11 C8.53756612,11 11,8.53756612 11,5.5 C11,4.04130931 10.4205374,2.64236278 9.3890873,1.6109127 C8.35763722,0.579462622 6.95869069,5.19678863e-17 5.5,1.03935773e-16 Z M5.42510638,9.11829787 C5.07740201,9.11829787 4.79553191,8.83642778 4.79553191,8.4887234 C4.79553191,8.14101903 5.07740201,7.85914894 5.42510638,7.85914894 C5.77281076,7.85914894 6.05468085,8.14101903 6.05468085,8.4887234 C6.05403685,8.83616068 5.77254366,9.11765387 5.42510638,9.11829787 Z M6.11319149,6.06170213 C6.11319149,6.06170213 6.05117021,6.08393617 6.05117021,6.12021277 L6.05117021,6.61989362 C6.05117021,6.96598227 5.77060993,7.24654255 5.42452128,7.24654255 C5.07843263,7.24654255 4.79787234,6.96598227 4.79787234,6.61989362 L4.79787234,6.12021277 C4.8035104,5.55170638 5.17128611,5.05019404 5.71180851,4.87393617 C6.08509892,4.74936058 6.33213798,4.39427169 6.31914894,4.00095745 C6.29393413,3.52041004 5.9004167,3.14173266 5.41925532,3.135 C5.07857797,3.13649179 4.76885679,3.3329669 4.62234043,3.64053191 C4.47207784,3.95236715 4.09747355,4.08334767 3.78563831,3.93308509 C3.47380307,3.78282251 3.34282254,3.40821822 3.49308511,3.09638298 C3.84563349,2.35743394 4.58999145,1.88544643 5.4087234,1.88170213 L5.42159574,1.88170213 C6.57966045,1.88841536 7.52688569,2.80623328 7.57010638,3.96351064 C7.60199033,4.90752956 7.00995529,5.76036459 6.1143617,6.06053191 L6.11319149,6.06170213 Z" id="Shape"></path>
            </g>
        </g>
    </g>
</svg>
